X:19155
T:Xota Puntiada (MG 36) (Arrg.)
T:Jota Puntiada (MG 36) (Arrg.)
R:Xota
C:Tradicional
S:Msica Tradicional Asturiana, (C) Tello & Tito. Asturies, 2001.
S:http://pagina.de/MusTradAst <telloytito@asturies.org>
A:Asturies
G:Arrg.
Z:Mtodu de Gaita 36
E:Nivel 3
M:3/8
Q:1/4=120
K:Cm
C|:"Cm"E2 D|"Cm"CDE|"Fm"FED|"Bb"D2 E|
"G"D2 C|"G"=B,CD|[1 "Cm"E2 C|"Cm"C2 C:|[2 "Cm"E2 C|"Cm"C2 G/G/|
|:"Cm"GFE|"G"D2 F/F/|"Bb"FED|"Cm"C2 E/E/|"Cm"EDC|
"G"=B,=B, C|"G"DED|[1 "Cm"C2 G/G/:|[2 "Cm"C3||"Cm"C
